X:1
T:Little Steps
T:Little Steps
T:Ira David Sankey
T:Frances Jane (Fanny) Crosby, 1898
T:Public Domain Courtesy of the Cyber Hymnal™
C:Ira David Sankey
Z:Public Domain
Z:Courtesy of the Cyber Hymnal™
%%score 1 ( 2 3 )
L:1/8
Q:1/4=110
M:none
K:Bb
V:1 treble 
V:2 bass 
V:3 bass 
V:1
 [B,D]2 [DF]2 [DF]2 [FB]2 | [FA]2 [EG]2 [EG]4 | [EG]2 [FA]2 [FB]2 [Fd]2 | [Fd]2 [Fc]2 [Fc]4 | %4
w: 1.~Lit- tle steps from|day to day,|In the bless- èd|Gos- pel way,|
w: 2.~Lit- tle thoughts on|air- y wing,|Lit- tle songs of|praise we sing,|
w: 3.~Lit- tle buds will|make the flowers,|Lit- tle drops the|cool- ing showers;|
 [Fd]2 [Fc]2 [FB]2 [^FA]2 | [Gc]2 [GB]2 [EG]4 | [DF]2 [FB]2 [EB]2 [EA]2 | [Ec]4 [DB]4 || %8
w: Lit- tle prayers we|learn to say,|Draw us near to|Je- sus.|
w: Lit- tle words to|deeds that spring,|Draw us near to|Je- sus.|
w: So these lit- tle|steps of ours|Draw us near to|Je- sus.|
"^Refrain" [EG]2 [EG]2 [Ge]2 [Ge]2 | [DF]2 [DF]2 [Fd]4 | [Fd]2 [Ec]2 [EG]2 [EA]2 | [DG]4 [DF]4 | %12
w: ||||
w: Step- ping, step- ping|on we go,|Draw- ing near to|Je- sus;|
w: ||||
 [EG]2 [EG]2 [Ge]2 [Ge]2 | [DF]2 [DF]2 [Fd]4 | [Fd]2 [Ec]2 [EG]2 [EA]2 | [Ec]4 [DB]4 |] %16
w: ||||
w: Lit- tle pil- grims|here be- low,|Look- ing un- to|Je- sus.|
w: ||||
V:2
 [B,,F,]2 [B,,B,]2 [B,,B,]2 [D,B,]2 | [E,B,]2 [E,B,]2 [E,B,]4 | [E,B,]2 [E,C]2 [D,B,]2 [B,,B,]2 | %3
 [F,B,]2 [F,A,]2 [F,A,]4 | [B,,B,]2 [C,A,]2 [D,B,]2 [D,C]2 | [E,B,]2 [E,B,]2 [E,B,]4 | %6
 [F,B,]2 [F,D]2 [F,C]2 [F,C]2 | [F,A,]4 [B,,B,]4 || [E,B,]2 [E,B,]2 [E,B,]2 [E,B,]2 | %9
 B,2 B,2 [B,,B,]4 | [F,A,]2 [F,A,]2 [F,A,]2 [F,C]2 | [B,,B,]4 [B,,B,]4 | %12
 [E,B,]2 [E,B,]2 [E,B,]2 [E,B,]2 | B,2 B,2 [B,,B,]4 | [F,A,]2 [F,A,]2 [F,C]2 [F,C]2 | %15
 [F,A,]4 [B,,B,]4 |] %16
V:3
 x8 | x8 | x8 | x8 | x8 | x8 | x8 | x8 || x8 | B,2 B,2 x4 | x8 | x8 | x8 | B,2 B,2 x4 | x8 | x8 |] %16

